!!!!SEGMENT: pl-kk--kk-i-120--001_anonim--alleluia-assumpta-es-maria.krn
!!!cenid: 16xx:1347
!!!COM: Anonim
!!!COM-rismid: pe30004985
!!!CDT:
!!!CNT:
!!!OTL: Alleluia assumpta es Maria
!!!PDT:
!!!AGN: Sacred
!!!SMS-siglum: PL-Kk
!!!SMS-shelfmark: Kk.I.120
!!!SMS-shelfwork: 001 W
!!!SMS-variant:
!!!SMS-altvar:
!!!NIFC-rismid: 1001153674
!!!URL-scan: http://repozytorium.nifc.pl/skany/pl-kk-nut--i-120
!!!ONB-nifc: UWAGA: w zbiorze 1. Alleluia assumpta es Maria, 2. Optimam patrem elegit
**kern	**text	**kern	**text	**kern	**text	**kern	**text
*part4	*part4	*part3	*part3	*part2	*part2	*part1	*part1
*staff4	*staff4	*staff3	*staff3	*staff2	*staff2	*staff1	*staff1
*I"Baſso	*	*I"Tenore	*	*I"Alto.	*	*I"Canto	*
*I'B	*	*I'T	*	*I'A	*	*I'S	*
*clefF4	*	*clefC4	*	*clefC3	*	*clefC1	*
*k[]	*	*k[]	*	*k[]	*	*k[]	*
*C:	*	*C:	*	*C:	*	*C:	*
*M2/2	*	*M2/2	*	*M2/2	*	*M2/2	*
*met(c|)	*	*met(c|)	*	*met(c|)	*	*met(c|)	*
*2\right	*	*2\right	*	*2\right	*	*2\right	*
=1	=1	=1	=1	=1	=1	=1	=1
!LO:TX:a:t=6	!	!	!	!LO:TX:t=P:problem:2\right:global	!	!	!
00r	.	00r	.	2g\	Al-	0r	.
.	.	.	.	4g\	-le-	.	.
.	.	.	.	4g\	-lu-	.	.
=2-	=2	=2-	=2	=2	=2	=2-	=2
.	.	.	.	4c\	-ia	.	.
.	.	.	.	4d\	.	.	.
.	.	.	.	4e\	.	.	.
.	.	.	.	8d\L	.	.	.
.	.	.	.	8c\J	.	.	.
=3-	=3	=3-	=3	=3	=3	=3-	=3
.	.	.	.	4d\	/Al-	1r	.
.	.	.	.	4G/	.	.	.
.	.	.	.	2g\	-le-	.	.
=4-	=4	=4-	=4	=4	=4	=4-	=4
!	!	!	!	!	!	!LO:TX:t=P:problem:2\right:global	!
.	.	.	.	2g\	-lu-	2dd\	Al-
.	.	.	.	2f#X\	.	4dd\	-le-
.	.	.	.	.	.	4dd\	-lu-
=5-	=5	=5-	=5	=5	=5	=5	=5
0r	.	00r	.	2g\	-ia/	4g\	-ia
.	.	.	.	.	.	4a\	.
!	!	!	!	!LO:TX:t=P:problem:kreska taktowa:między nutą a kropką	!	!	!
.	.	.	.	2.g\	Al-	4b\	.
.	.	.	.	.	.	8a\L	.
.	.	.	.	.	.	8g\J	.
=6-	=6	=6-	=6	=6	=6	=6	=6
.	.	.	.	.	.	4a\	/Al-
.	.	.	.	4fn\	-le-	4b\	-le-
.	.	.	.	4e\	.	[2cc\	-lu-
.	.	.	.	8d\L	.	.	.
.	.	.	.	8c\J	.	.	.
=7-	=7	=7-	=7	=7	=7	=7	=7
!LO:TX:t=P:problem:2\right:global	!	!	!	!	!	!	!
2G\	Al-	.	.	2.d\	.	2cc\]	.
4G\	-le-	.	.	.	.	2b\	-ia/
4G\	-lu-	.	.	4d\	-lu-	.	.
=8	=8	=8-	=8	=8	=8	=8	=8
4C/	-ia	.	.	4e\	-ia	4cc\	al-
4D/	.	.	.	4f\	.	4b\	.
4E/	.	.	.	4g\	.	4cc\	.
8D/L	.	.	.	8f\L	.	8dd\L	.
8C/J	.	.	.	8e\J	.	8ee\J	.
=9	=9	=9-	=9	=9	=9	=9	=9
4D/	.	1r	.	4f#X\	/Al-	2dd\	-le-
4GG/	.	.	.	4g\	.	.	.
2G\	al-	.	.	2d\	-le-	2b\	-lu-
=10	=10	=10-	=10	=10	=10	=10	=10
!	!	!	!	!LO:LB:g=original	!	!	!
2G\	-le-	2d\	Al-	2d\	-lu-	1a	-ia
2F#X\	-lu-	4d\	-le-	2f#X\	.	.	.
.	.	4d\	-lu-	.	.	.	.
=11	=11	=11	=11	=11	=11	=11	=11
4G\	-ia	4G/	-ia	4d\	-ia/	4b\	/al-
4Fn\	.	4A/	.	4r	.	4cc\	.
4E\	.	4B/	.	2r	.	4dd\	.
4F\	.	8A/L	.	.	.	8cc\L	.
.	.	8G/J	.	.	.	8b\J	.
=12	=12	=12	=12	=12	=12	=12	=12
4G\	/al-	2B\	Al-	2r	.	2dd\	-le-
4D\	-le-	.	.	.	.	.	.
2G\	-lu-	2d\	-le-	2g\	Al-	2ee\	-lu-
=13	=13	=13	=13	=13	=13	=13	=13
!	!	!	!	!	!	!LO:LB:g=original	!
2G\	-ia	2e\	.	1a	-le-	2cc\	-ia
2Fn\	al-	2fn\	-lu-	.	.	2dd\	al-
=14	=14	=14	=14	=14	=14	=14	=14
2G\	-le-	2d\	.	1g	-lu-	2b\	-le-
2E\	-lu-	2e\	.	.	.	2cc\	-lu-
=15	=15	=15	=15	=15	=15	=15	=15
2D\	-ia/	2A\	-ia	1fn	-ia	2cc\	-ia
2G\	al-	2B\	/Al-	.	.	2b\	al-
=16	=16	=16	=16	=16	=16	=16	=16
!LO:LB:g=original	!	!	!	!	!	!	!
2C/	-le-	2G/	.	2e\	/Al-	2cc\	-le-
2GG/	-lu-	2B\	-le-	2g\	-le-	2b\	-lu-
=17	=17	=17	=17	=17	=17	=17	=17
1D	-ia	2.c\	-lu-	2g\	-lu-	1a	-ia/
.	.	.	.	2f#X\	-ia	.	.
.	.	4d\	.	.	.	.	.
=18	=18	=18	=18	=18	=18	=18	=18
2GG/	/al-	2d\	-ia	2g\	Al-	2b\	al-
2E\	.	2c\	Al-	2g\	.	2cc\	.
=19	=19	=19	=19	=19	=19	=19	=19
!	!	!LO:LB:g=original	!	!	!	!	!
2F\	.	2A\	.	2fn\	.	2cc\	.
2C/	.	2c\	.	2e\	.	2ee\	.
=20	=20	=20	=20	=20	=20	=20	=20
1G	-le-	2B\	-le-	1g	-le-	2dd\	-le-
.	.	2c\	.	.	.	2ee\	.
=21	=21	=21	=21	=21	=21	=21	=21
1G	-lu-	2c\	-lu-	1g	-lu-	1dd	-lu-
.	.	2B\	.	.	.	.	.
=22	=22	=22	=22	=22	=22	=22	=22
!LO:TX:t=P:problem:wysokość poprawiana	!	!LO:N:vis=00	!	!LO:N:vis=00	!	!LO:N:vis=	!
1C;	-ia/	1c;	-ia/	1g;	-ia/	1ee;	-ia.
=26||	=26||	=26||	=26||	=26||	=26||	=26||	=26||
*M3/2	*	*M3/2	*	*M3/2	*	*M3/2	*
!LO:TX:a:t=3	!	!	!	!	!	!LO:TX:a:t=2	!
!LO:TX:t=P:problem:jeden takt skreślony	!	!	!	!LO:N:vis=1	!	!LO:LB:g=original	!
!	!	!	!	!LO:LB:g=original	!	!	!
0.r	.	2G/	Aſ-	1.r	.	0.r	.
.	.	2A/	-sum-	.	.	.	.
.	.	2B\	-pta	.	.	.	.
=27-	=27	=27	=27	=27-	=27	=27-	=27
.	.	1.c	eſt	2c\	Aſ-	.	.
.	.	.	.	2e\	-sum-	.	.
.	.	.	.	2f\	-pta	.	.
=28-	=28	=28	=28	=28	=28	=28	=28
!LO:N:vis=1	!	!	!	!	!	!	!
1.r	.	2B\	aſ-	1g	eſt	2g\	Aſ-
.	.	2c\	-sum-	.	.	2a\	-sum-
.	.	2d\	-pta	2f\	Ma-	2b\	-pta
=29	=29	=29	=29	=29	=29	=29	=29
2C/	Aſ-	1e	eſt	2e\	-ri-	1cc	eſt
2E\	-sum-	.	.	2f\	-a	.	.
2F\	-pta	2A\	Ma-	2g\	Ma-	2cc\	Ma-
=30	=30	=30	=30	=30	=30	=30	=30
1G	eſt	2d\	-ri-	1g	-ri-	2cc\	-ri-
.	.	2d\	-a	.	.	2cc\	-a
2G\	Ma-	2d\	Ma-	2g\	-a	2b\	Ma-
=31	=31	=31	=31	=31	=31	=31	=31
2A\	-ri-	2c\	-ri-	2fn\	aſ-	2cc\	-ri-
2A\	-a	2A/	-a	2f\	-sum-	2cc\	-a
2B\	Ma-	2G/	in	2f\	-pta	2dd\	in
=32	=32	=32	=32	=32	=32	=32	=32
!LO:LB:g=original	!	!LO:LB:g=original	!	!	!	!	!
2c\	-ri-	2G/	Cae-	(2e\	est	2ee\	Cae-
2c\	-a	2A/	.	2d\)	.	2ff#X\	.
2B\	in	2B/	.	2d\	Ma-	2gg\	.
=33	=33	=33	=33	=33	=33	=33	=33
1.A	Cae-	1.c	.	1e	-ri-	1gg	.
.	.	.	.	2c/	.	2ff#X\	.
=34	=34	=34	=34	=34	=34	=34	=34
2G\	-lum	2B\	-lum	2d\,	-a	2gg\	-lum
2G\	gau-	2d\	gau-	2g\	gau-	2b\	gau-
2D\	-det	2d\	-det	2f#X\	-det	2a\	-det
=35	=35	=35	=35	=35	=35	=35	=35
!	!	!	!	!LO:LB:g=original	!	!	!
2G\	gau-	4d\	E-	2g\	gau-	2b\	gau-
.	.	4c\	.	.	.	.	.
2G\	-det	4d\	.	2g\	-det	2b\	-det
.	.	4e\	.	.	.	.	.
2F#X\	E-	4d\	.	2d\	E-	2dd\	E-
.	.	4c\	.	.	.	.	.
=36	=36	=36	=36	=36	=36	=36	=36
2.G\	-xer-	4B\	-xer-	2.d\	-xer-	4dd\	-xer-
.	.	4A\	.	.	.	4cc\	.
.	.	4B\	.	.	.	4dd\	.
4G\	-ci-	4c\	.	4d\	-ci-	4ee\	.
2G\	-tus	4B\	.	2d\	-tus	4dd\	.
.	.	4A\	.	.	.	4cc\	.
=37	=37	=37	=37	=37	=37	=37	=37
!	!	!	!	!	!	!LO:LB:g=original	!
2G\	gau-	2.G/	.	2B/	gau-	4b\	.
.	.	.	.	.	.	4a\	.
2G\	-det	.	.	2B/	-det	4b\	.
.	.	4G/	-ci-	.	.	4cc\	.
2G\	E-	2G/	-tus	2B/	E-	4b\	.
.	.	.	.	.	.	4a\	.
=38	=38	=38	=38	=38	=38	=38	=38
4G\	-xer-	2B\	gau-	2.d\	-xer-	2.g/	.
4F\	.	.	.	.	.	.	.
4G\	.	2G/	-det	.	.	.	.
4A\	.	.	.	4d\	-ci-	4g/	-ci-
4G\	.	2B\	E-	2g\	-tus	2g/	-tus
4F\	.	.	.	.	.	.	.
=39	=39	=39	=39	=39	=39	=39	=39
4E\	.	2.c\	-xer-	4g\	E-	2cc\	gau-
4D\	.	.	.	4f\	.	.	.
4E\	.	.	.	4g\	.	2cc\	-det
4F\	.	4c\	-ci-	4a\	.	.	.
4E\	.	2e\	-tus	4g\	.	2cc\	E-
4D\	.	.	.	4f\	.	.	.
=40	=40	=40	=40	=40	=40	=40	=40
!LO:LB:g=original	!	!	!	!	!	!	!
2.C/	.	4g\	gau-	4e\	-xer-	2.ee\	-xer-
.	.	4f\	.	4d\	.	.	.
.	.	4g\	.	4e\	.	.	.
4C/	-ci-	4a\	.	4f\	.	4ee\	-ci-
2C/	-tus	4g\	.	4e\	.	2ee\	-tus
.	.	4f\	.	4d\	.	.	.
=41	=41	=41	=41	=41	=41	=41	=41
!	!	!LO:LB:g=original	!	!	!	!	!
1c	gau-	4e\	.	2.c/	.	2gg\	gau-
.	.	4d\	.	.	.	.	.
.	.	4e\	.	.	.	2gg\	-det
.	.	4f\	.	4c/	-ci-	.	.
2C/	-det	4e\	.	2c/	-tus	2gg\	E-
.	.	4d\	.	.	.	.	.
=42	=42	=42	=42	=42	=42	=42	=42
2C/	gau-	2c\	.	2e\	gau-	4gg\	-xer-
.	.	.	.	.	.	4ff\	.
2C/	-det	2c\	-det	2e\	-det	4gg\	.
.	.	.	.	.	.	4aa\	.
2c\	E-	2c\	E-	2e\	E-	4gg\	.
.	.	.	.	.	.	4ff\	.
=43	=43	=43	=43	=43	=43	=43	=43
!	!	!LO:LB:g=original	!	!	!	!	!
4c\	-xer-	2.e\	-xer-	2.g\	-xer-	4ee\	.
4B-X\	.	.	.	.	.	4dd\	.
4c\	.	.	.	.	.	4ee\	.
4d\	.	4e\	-ci-	4g\	-ci-	4ff\	.
4c\	.	2e\	-tus	2g\	-tus	4ee\	.
4B-\	.	.	.	.	.	4dd\	.
=44	=44	=44	=44	=44	=44	=44	=44
4A\	.	2f\	gau-	2fn\	/gau-	2.cc\	.
4G\	.	.	.	.	.	.	.
4A\	.	2F/	-det	2f\	-det	.	.
4B\	.	.	.	.	.	4cc\	-ci-
4A\	.	2A/	E-	2f\	E-	4cc\	-tus
4G\	.	.	.	.	.	4cc\	E-
=45	=45	=45	=45	=45	=45	=45	=45
!	!	!	!	!	!	!LO:LB:g=original	!
2.F\	.	2.A\	-xer-	2.f\	-xer-	2.cc\	-xer-
4F\	-ci-	4A\	-ci-	4f\	-ci-	4cc\	-ci-
2F\	-tus	2A\	-tus	2f\	-tus/	2cc\	-tus
=46	=46	=46	=46	=46	=46	=46	=46
1F	An-	2A\	An-	2f\	An-	2cc\	An-
.	.	2Bn\	.	1g	.	2dd\	.
2E\	-ge-	2c\	-ge-	.	.	2ee\	-ge-
=47	=47	=47	=47	=47	=47	=47	=47
2D\	-lo-	1c	-lo-	2a\	-ge-	2ff\	-lo-
2G\	.	.	.	1g	-lo-	1dd	.
2GG/	-rum	2B\	-r(um)	.	.	.	.
=48	=48	=48	=48	=48	=48	=48	=48
2C/	.	2c\	An-	2g\	-rum	2cc\	-rum
2F\	An-	2A\	.	2f\	An-	2cc\	An-
2C/	-ge-	2G\	-ge-	2e\	-ge-	2cc\	-ge-
=49	=49	=49	=49	=49	=49	=49	=49
1.G	-lo-	1.G	-lo-	1.d	-lo-	1.b	-lo-
=50	=50	=50	=50	=50	=50	=50	=50
1.G	.	1.G	.	1.e	.	1.cc	.
=51	=51	=51	=51	=51	=51	=51	=51
!LO:N:vis=00	!	!LO:N:vis=00	!	!LO:N:vis=00	!	!LO:N:vis=00	!
!LO:TX:b:i:t=Alleluia ut supra	!	!LO:TX:b:i:t=Alleluia ut supra	!	!LO:TX:b:i:t=Alleluia ut supra	!	!LO:TX:b:i:t=Alleluia ut supra	!
1.G;	-rum.-	1.G\;	-rum.-	1.d;	-rum-	1.b;	-rum.-
==	==	==	==	==	==	==	==
*-	*-	*-	*-	*-	*-	*-	*-
!!!system-decoration: [(s1,s2,s3,s4)]
!!!ENC: Kamil Watkowski
!!!END: 2021-08-05
